!!!COM: Gomółka, Mikołaj
!!!CDT: ~1535-after 1591
!!!OTL: Nie obruszay syę
!!!OTL@LAT: Noli aemulari in malignantibus
!!!AGn: Motet; Psalm
!!!SCn: Gom2037
!!!voices: 4
!!!CNT: Polish
!!!OCY: Poland
!!!LYR: Jan Kochanowski (1530-1584/08/22)
!!!GTL: Melodiae na Psałterz Polski
!!!EFL: 37/150
!!!PPR: Łazarz Andrysowicz
!!!PPP: Kraków
!!!PDT: 1580
!!!YEC: 2015 Marcin Konik
!!!ENC: Marcin Konik
!!!END: 2015/05/19
!!!EED: Marcin Konik
!!!EEV: 2015/05/19
!!!ONB: Translated from MusicXML and edited on 2015/03/06 by Marcin Konik
!!!CharacterEncoding: utf-8
!!muse2ps: i2I150v85,85,85,150Q16
**kern	**kern	**kern	**kern
*staff4	*staff3	*staff2	*staff1
*Ivox	*Ivox	*Ivox	*Ivox
*I"Bassus	*I"Tenor	*I"Altus	*I"Cantus
*I'B	*I'T	*I'A	*I'C
*clefF4	*clefC3	*clefC3	*clefC1
*k[b-]	*k[b-]	*k[b-]	*k[b-]
*M2/1	*M2/1	*M2/1	*M2/1
*met(C|)	*met(C|)	*met(C|)	*met(C|)
=1-	=1-	=1-	=1-
1G	1B-	1d	1g
2D	2A	2d	2f
2G	2B-	4d	2g
.	.	4e	.
=2	=2	=2	=2
1F	1c	1f	1a
2F	2c	2f	2a
2BB-	2d	2f	2b-
=3	=3	=3	=3
2C	2.c	2e-	2a
2C	.	2e-	2g
.	4B-	.	.
2D	4A	2.d	2g
.	4G	.	.
2D	2A	.	2g-
.	.	4c	.
=4	=4	=4	=4
1G	1G	1B	1g
=:|:	=:|:	=:|:	=:|:
1G	1d	1g	1cc-
=5	=5	=5	=5
2C	2e	2g	2cc
2D	1d	2f	2a
1AA	.	1e	1a
.	2d-	.	.
=6	=6	=6	=6
2D	2d	2f	2a
2BB-	2.f	2d	2.dd
2BB-	.	4b-	.
.	4e-	4a	4cc
2BB-	4d	4g	4b-
.	4c	4f	4a
=7	=7	=7	=7
2E-	4B-	4e-	4g
.	4A	2d	4f
2E-	2G	.	2g
.	.	4c	.
2D	2A	2d	2g-
2D	[2d	[2f	2a
=8	=8	=8	=8
2D	4d]	4f]	2a
.	4c	4e-	.
2F	4B-	1d	2f
.	4A	.	.
1E-	1G	.	4g
.	.	.	4f
.	.	2c	4g
.	.	.	4a
=9	=9	=9	=9
1D	2F	2d	2b-
.	2d	2f	2a
2.C	2.e-	2.g	2.cc
4D	4d	4f	4b-
=10	=10	=10	=10
2F	4c	4f	2a
.	4B-	4e-	.
2G	4A	4d	1g
.	4G	4c	.
1D	1A	2.d	.
.	.	.	2g-
.	.	4c	.
=11	=11	=11	=11
0G	0G	0B	0g
==	==	==	==
*-	*-	*-	*-
